X:1307
T:Brunnsbergspolskan
N:Uppt. & arr: L Sohlman
R:Polska
Z:Lennart Sohlman
O:Dalarna - Älvdalen
S:efter [[!Einar Britt]], Blyberg
M:3/4
L:1/8
K:Dm
V:1
|:A>(g {fg}f>)(e d>)(^c|e>)(e g>)(g a>)(a|b2) (g>{ag}e) {e}f>f|(f<a) (f/a/)f/d/ e>^c|!
A>(g {fg}f>)(e {gfg}f>)e|[1(d^c) [A4A4]:|[2(d^c) [D4d4]|:[D3/2A3/2](g/ {fg}f>)(e {gfg}f>)e|(d^c) A2 E>E|!
{E}F2 "tr"E>(D ^C>)C|{^C}(3D2(D2F2) [A2-A2-]|[A3/2A3/2](g/ {fg}f>)(e {gfg}f>)e|(d^c) A2 E>E|
{E}F2 "tr"E>(D ^C>)C|{^C}[D2D2][D4D4]:|]
V:2
I:repbra 0
|:[D2A2] d>(^c A>)(A|^c>)(c e>)(e f>)(f|g2) (e>{fe}^c) {c}d>d|(d<f) dd/=B/ ^c>A|!
E2 d>(^c d>)c|[1(AG) [E4A4]:|[2(GE) [F4A4]|:A2 d>(^c d>)c|(AG) [E2A2] [A,3/2E3/2]E/|!
A2 G>(F E>)E|{E}(3F2(A2d2) ([E2^c2]|A2) d>(^c d>)c|(AG) [E2A2] [A,3/2E3/2]E/|!
A2 G>(F E>)E|{E}[F2A2] [F4A4]:|]
(:musicend:)
Ingår i kategorin [[!andrastämma]].
(:music:)
